!!!OTL: STRASSBURG MUSS ICH LASSEN
!!!ARE: Europa, Mitteleuropa, Deutschland, Rheinland, Siebengebirge
!!!SCT: E1600B
!!!YEM: Copyright 1995, estate of Helmut Schaffrath.
**kern
*ICvox
*Ivox
*M3/4
*k[b-]
*F:
{8f
8a
=1
4cc
4cc
16dd
16cc
16b-
16a
=2
8.a
16g
4a}
{8g
8a
=3
4.b-
8dd
8cc
8b-
=4
4a
4r}
{8g
8a
=5
4b-
4dd
16cc
16b-
16a
16g
=6
8.a
16b-
4cc}
{8ff
8dd
=7
4cc
4a
8cc
16cc
16b-
=8
4a
4r}
==
!!!AGN: Staende -, Handwerker -, Gesellen - Lied; Abschied, Wanderschaft
!!!ONB: ESAC (Essen Associative Code) Database: ERK3
!!!AMT: simple triple
!!!AIN: vox
!!!EED: Helmut Schaffrath
!!!EEV: 1.0
*-
